X:40
T: Shang le lingzi luo le po
N: C1538
O: China, Fujian, Liancheng
S: II, 616]
R: Shange. Nann qing]
M: 2/4
L: 1/16
K: C
AcAAA2AA | e2A2d2ed | A2z2
z2AA | AcAAA2AA | e2A2c4- | c2cA
z2AA | A2A2AcAA | e2Acded2
z2AA | AcA2A2AA | e2Acc4 | c2cAz4

